build/image/pictureSVG/logo-tablet.svg

<svg xmlns="http://www.w3.org/2000/svg" width="112pt" height="46pt" viewBox="0 0 112 46" fill-rule="evenodd"><path d="M83.8.6c-.4.3-17.7.5-38.6.4-22.1 0-39 .4-40.5.9C.7 3.5-.2 8.1.2 25.8l.3 15.7 3.3 1.7c2.9 1.4 6.2 1.6 22.5 1.3 10.6-.2 25.1-.6 32.2-.9 7.7-.4 16.7-.3 22 .4 5 .6 11.1 1.3 13.7 1.6 3.4.4 6.6 0 11.4-1.6l6.6-2.2-.3-19.5c-.4-17.9-.6-19.6-2.3-20.9C108.1.4 104.5 0 96 0c-6.4 0-11.9.3-12.2.6zM33 6.9c0 1.6-.6 3.1-1.4 3.4-1.9.8-2.6-.1-2.6-3.5 0-2.1.5-2.8 2-2.8s2 .7 2 2.9zm38.8 7.4c.2 3.7.6 6.7 1.1 6.7.4 0 1.8-2.2 3.1-5 2.6-5.6 5.4-9 7.4-9 1 0 .5 1.6-1.6 5.5L78.9 18l3.2 8.1c2.8 6.7 3.1 8.2 1.9 8.9-2 1.3-2.5.7-5-6.1l-2.3-6.1-1.8 2.3c-1 1.3-1.9 4-2.1 5.9-.2 2.8-.8 3.6-2.7 3.8-2 .3-2.3 0-1.8-2 .3-1.2.2-7-.2-12.8-.8-10.3-.2-13.5 2.3-12.7.6.2 1.2 3.3 1.4 7zM49 9.5c.6.8.9 1.9.5 2.5-.9 1.5-3.2 1.2-3.9-.6-.3-.9-1.5-1.4-2.8-1.2-2 .3-2.3.9-2.3 4.8 0 4.5 0 4.5 3.7 4.8 4.8.4 6.8 3.2 6.8 9.3 0 3.9-.4 4.7-2.5 5.7-3.8 1.7-10.2 1.5-10.9-.3-.8-2.1 1.2-6.7 2.7-6.2.6.2 1.2 1.5 1.2 2.8 0 1.9.6 2.5 2.8 2.7l2.8.3-.6-4.8c-1-7.2-1.1-7.3-5.4-7.3-3.4 0-4.2-.4-4.7-2.4-1.1-4.6 0-9 2.6-10.3 3.4-1.7 8.5-1.6 10 .2zm7.4 1.6c.3 1.7.6 4.9.6 7 0 2.5.5 3.9 1.3 3.9 2.8-.1 3.7-1.7 3.5-6.6-.3-4.3-.1-4.9 1.7-4.9s2.1.9 2.8 11.4c.5 8.1.4 11.8-.4 12.8-1.7 1.9-3.3 1.1-3.4-1.8-.4-8.9-.4-8.9-3-8.9-2.4 0-2.5.3-2.5 5.5 0 4.8-.2 5.5-2 5.5-1.4 0-2-.7-2.1-2.3 0-1.2-.2-6.9-.4-12.7-.3-9.9.2-11.9 2.6-12 .4 0 .9 1.4 1.3 3.1zM26 21.9c.3 6.7.4 12.6.2 13.1-.2.6-1.2 1-2.3 1-1.7 0-1.9-.8-2-6.3-.1-6-.1-6.1-1.1-2.5-1.3 5-3.9 5-5.8 0l-1.5-3.7L13 29c-.4 4.7-.8 5.5-2.5 5.5-1.9 0-2-.7-2-12 0-11.2.1-12 2-12 1.4 0 2.5 1.6 4.4 6.4l2.5 6.4 1.3-2.9c.7-1.6 1.5-4.5 1.9-6.4.7-3.6 2.1-5.2 3.9-4.7.6.2 1.2 5.8 1.5 12.6zm75.4-11.3c.3.9.6 3.2.6 5.3 0 2 .6 4.3 1.3 5 .8.9.9 1.5.1 1.8-.7.2-.9 2.2-.6 5.2.4 4.2.1 5.1-1.7 6-1.1.7-2.1 1-2.2.9 0-.2-.3-2.6-.6-5.3-.2-2.8-.5-5.1-.6-5.1-.1-.1-1.6-.5-3.4-.9l-3.2-.6-.3 5.8c-.2 4.3-.7 5.9-1.9 6.1-1.3.2-1.7-1.3-2.2-9.5-.6-8.6-.5-10.1 1.1-12.3 2.9-3.8 12.4-5.6 13.6-2.4zm-68 4.1c.3 1.6.6 6.6.8 11.3.2 7.9.1 8.5-1.8 8.8-2 .3-2.1-.3-2.8-10.4-.5-8.3-.4-10.9.6-11.5 2.1-1.4 2.6-1.1 3.2 1.8z"/><path d="M90.9 13.6c-.5 1.6-.8 3.9-.4 5.1.4 1.9 1.2 2.3 4.1 2.3h3.5l-.3-4.8c-.3-4.3-.5-4.7-3-5-2.3-.3-3 .2-3.9 2.4z"/></svg>

<?xml version="1.0" encoding="UTF-8" standalone="yes"?>
<!-- Created with sK1/UniConvertor (http://sk1project.org/) -->
<svg xmlns="http://www.w3.org/2000/svg" xmlns:xlink="http://www.w3.org/1999/xlink"
  width="112pt" height="46pt" viewBox="0 0 112 46"
  fill-rule="evenodd">
<g>
<g>
<path style="stroke:none; fill:#000000" d="M 83.8 0.599998C 83.4 0.899998 66.1 1.1 45.2 1C 23.1 1 6.2 1.4 4.7 1.9C 0.700001 3.5 -0.199999 8.1 0.200001 25.8L 0.500001 41.5L 3.8 43.2C 6.7 44.6 10 44.8 26.3 44.5C 36.9 44.3 51.4 43.9 58.5 43.6C 66.2 43.2 75.2 43.3 80.5 44C 85.5 44.6 91.6 45.3 94.2 45.6C 97.6 46 100.8 45.6 105.6 44L 112.2 41.8L 111.9 22.3C 111.5 4.4 111.3 2.7 109.6 1.4C 108.1 0.400002 104.5 0 96 0C 89.6 0 84.1 0.299999 83.8 0.599998zM 33 6.9C 33 8.5 32.4 10 31.6 10.3C 29.7 11.1 29 10.2 29 6.8C 29 4.7 29.5 4 31 4C 32.5 4 33 4.7 33 6.9zM 71.8 14.3C 72 18 72.4 21 72.9 21C 73.3 21 74.7 18.8 76 16C 78.6 10.4 81.4 7 83.4 7C 84.4 7 83.9 8.6 81.8 12.5L 78.9 18L 82.1 26.1C 84.9 32.8 85.2 34.3 84 35C 82 36.3 81.5 35.7 79 28.9L 76.7 22.8L 74.9 25.1C 73.9 26.4 73 29.1 72.8 31C 72.6 33.8 72 34.6 70.1 34.8C 68.1 35.1 67.8 34.8 68.3 32.8C 68.6 31.6 68.5 25.8 68.1 20C 67.3 9.7 67.9 6.5 70.4 7.3C 71 7.5 71.6 10.6 71.8 14.3zM 49 9.5C 49.6 10.3 49.9 11.4 49.5 12C 48.6 13.5 46.3 13.2 45.6 11.4C 45.3 10.5 44.1 10 42.8 10.2C 40.8 10.5 40.5 11.1 40.5 15C 40.5 19.5 40.5 19.5 44.2 19.8C 49 20.2 51 23 51 29.1C 51 33 50.6 33.8 48.5 34.8C 44.7 36.5 38.3 36.3 37.6 34.5C 36.8 32.4 38.8 27.8 40.3 28.3C 40.9 28.5 41.5 29.8 41.5 31.1C 41.5 33 42.1 33.6 44.3 33.8L 47.1 34.1L 46.5 29.3C 45.5 22.1 45.4 22 41.1 22C 37.7 22 36.9 21.6 36.4 19.6C 35.3 15 36.4 10.6 39 9.3C 42.4 7.59999 47.5 7.7 49 9.5zM 56.4 11.1C 56.7 12.8 57 16 57 18.1C 57 20.6 57.5 22 58.3 22C 61.1 21.9 62 20.3 61.8 15.4C 61.5 11.1 61.7 10.5 63.5 10.5C 65.3 10.5 65.6 11.4 66.3 21.9C 66.8 30 66.7 33.7 65.9 34.7C 64.2 36.6 62.6 35.8 62.5 32.9C 62.1 24 62.1 24 59.5 24C 57.1 24 57 24.3 57 29.5C 57 34.3 56.8 35 55 35C 53.6 35 53 34.3 52.9 32.7C 52.9 31.5 52.7 25.8 52.5 20C 52.2 10.1 52.7 8.09999 55.1 7.99999C 55.5 7.99999 56 9.4 56.4 11.1zM 26 21.9C 26.3 28.6 26.4 34.5 26.2 35C 26 35.6 25 36 23.9 36C 22.2 36 22 35.2 21.9 29.7C 21.8 23.7 21.8 23.6 20.8 27.2C 19.5 32.2 16.9 32.2 15 27.2L 13.5 23.5L 13 29C 12.6 33.7 12.2 34.5 10.5 34.5C 8.6 34.5 8.5 33.8 8.5 22.5C 8.5 11.3 8.6 10.5 10.5 10.5C 11.9 10.5 13 12.1 14.9 16.9L 17.4 23.3L 18.7 20.4C 19.4 18.8 20.2 15.9 20.6 14C 21.3 10.4 22.7 8.79999 24.5 9.29999C 25.1 9.49999 25.7 15.1 26 21.9zM 101.4 10.6C 101.7 11.5 102 13.8 102 15.9C 102 17.9 102.6 20.2 103.3 20.9C 104.1 21.8 104.2 22.4 103.4 22.7C 102.7 22.9 102.5 24.9 102.8 27.9C 103.2 32.1 102.9 33 101.1 33.9C 100 34.6 99 34.9 98.9 34.8C 98.9 34.6 98.6 32.2 98.3 29.5C 98.1 26.7 97.8 24.4 97.7 24.4C 97.6 24.3 96.1 23.9 94.3 23.5L 91.1 22.9L 90.8 28.7C 90.6 33 90.1 34.6 88.9 34.8C 87.6 35 87.2 33.5 86.7 25.3C 86.1 16.7 86.2 15.2 87.8 13C 90.7 9.19999 100.2 7.4 101.4 10.6zM 33.4 14.7C 33.7 16.3 34 21.3 34.2 26C 34.4 33.9 34.3 34.5 32.4 34.8C 30.4 35.1 30.3 34.5 29.6 24.4C 29.1 16.1 29.2 13.5 30.2 12.9C 32.3 11.5 32.8 11.8 33.4 14.7z"/>
<path style="stroke:none; fill:#000000" d="M 90.9 13.6C 90.4 15.2 90.1 17.5 90.5 18.7C 90.9 20.6 91.7 21 94.6 21L 98.1 21L 97.8 16.2C 97.5 11.9 97.3 11.5 94.8 11.2C 92.5 10.9 91.8 11.4 90.9 13.6z"/>
</g>
</g>
</svg>
